public/images/poses-sm/ThreeLeggedDog.svg

<svg width="800" height="900" fill="none" xmlns="http://www.w3.org/2000/svg"><path d="M359.709 467.741c-10.099-22.201-68.675-74.677-88.873-113.026-20.199-38.348-68.675-153.393-70.695-165.503-2.02-12.111 6.06-12.111-6.059-24.221-12.12-12.11-40.398-32.294-44.437-32.294-4.04 0-6.06 4.037 0 12.111 6.059 8.073 24.238 26.239 26.258 32.293 2.02 6.055 12.119 50.459 16.159 62.568 4.039 12.111 24.238 111.01 36.357 135.23 12.119 24.22 64.635 104.951 64.635 104.951l66.655-12.109Z" fill="#fff" stroke="#000" stroke-width="5" stroke-miterlimit="10"/><path d="M359.709 467.741c-10.099-22.201-68.675-74.677-88.873-113.026-20.199-38.348-68.675-153.393-70.695-165.503-2.02-12.111 6.06-12.111-6.059-24.221-12.12-12.11-40.398-32.294-44.437-32.294-4.04 0-6.06 4.037 0 12.111 6.059 8.073 24.238 26.239 26.258 32.293 2.02 6.055 12.119 50.459 16.159 62.568 4.039 12.111 24.238 111.01 36.357 135.23 12.119 24.22 64.635 104.951 64.635 104.951l66.655-12.109Z" stroke="#000" stroke-width="5" stroke-miterlimit="10"/><path d="m358.605 491.902 29.037-20.814 40.4 51.771c15.812 20.257 42.901 48.011 55.198 63.767 12.297 15.757 27.383 58.298 36.164 69.55l14.051 18.008-26.554.784s-8.537-13.258-44.867-15.715c-36.33-2.458-44.867-15.715-51.147-30.729-6.281-15.013-2.54-28.786-19.857-53.298-17.319-24.512-25.606-39.772-31.122-44.522-5.521-4.751-7.275-7.001-7.275-7.001l5.972-31.801Z" fill="#fff" stroke="#000" stroke-width="5" stroke-miterlimit="10"/><path d="m358.605 491.902 29.037-20.814 40.4 51.771c15.812 20.257 42.901 48.011 55.198 63.767 12.297 15.757 27.383 58.298 36.164 69.55l14.051 18.008-26.554.784s-8.537-13.258-44.867-15.715c-36.33-2.458-44.867-15.715-51.147-30.729-6.281-15.013-2.54-28.786-19.857-53.298-17.319-24.512-25.606-39.772-31.122-44.522-5.521-4.751-7.275-7.001-7.275-7.001l5.972-31.801Z" stroke="#000" stroke-width="5" stroke-miterlimit="10"/><path d="M365.685 498.364c7.709-11.133 20.017-24.871 22.302-26.586 0 0-18.746-28.327-46.456-34.31-27.709-5.983-47.561 20.111-58.976 42.947-10.091 20.187-30.828 58.817-38.821 71.948-7.991 13.135-21.437 37.32-34.539 56.246-15.414 22.268-30.029 54.261-36.534 70.232-6.277 15.417-15.707 32.079-17.41 36.26-3.137 7.706-8.276 15.128 3.436 18.837 11.555 3.656 45.667 6.498 51.992 7.398 7.998 1.138 16.566-1.72 11.137-6.568-5.429-4.851-23.426-7.411-31.138-10.549-7.715-3.137-13.429-5.989-8.291-13.412 5.139-7.423 42.823-57.104 62.239-78.806 19.416-21.7 57.024-71.457 76.232-91.085 26.27-26.842 27.128-18.565 31.128-17.996-.002-.001 8.559-17.132 13.699-24.556Z" fill="#fff" stroke="#000" stroke-width="5" stroke-miterlimit="10"/><path d="M365.685 498.364c7.709-11.133 20.017-24.871 22.302-26.586 0 0-18.746-28.327-46.456-34.31-27.709-5.983-47.561 20.111-58.976 42.947-10.091 20.187-30.828 58.817-38.821 71.948-7.991 13.135-21.437 37.32-34.539 56.246-15.414 22.268-30.029 54.261-36.534 70.232-6.277 15.417-15.707 32.079-17.41 36.26-3.137 7.706-8.276 15.128 3.436 18.837 11.555 3.656 45.667 6.498 51.992 7.398 7.998 1.138 16.566-1.72 11.137-6.568-5.429-4.851-23.426-7.411-31.138-10.549-7.715-3.137-13.429-5.989-8.291-13.412 5.139-7.423 42.823-57.104 62.239-78.806 19.416-21.7 57.024-71.457 76.232-91.085 26.27-26.842 27.128-18.565 31.128-17.996-.002-.001 8.559-17.132 13.699-24.556Z" stroke="#000" stroke-width="5" stroke-miterlimit="10"/><path d="M171.887 680.707c3.633 6.694 23.864 12.162 23.864 12.162M501.149 619.843c-8.612-9.697-25.659-19.938-39.422-7.404-13.765 12.535-9.418 35.131 3.845 47.096" stroke="#000" stroke-width="5" stroke-miterlimit="10"/><path d="M537.642 665.088c5.911 5.474 4.82 13.062 8.762 20.989 6.265 12.595-5.71 30.778-20.942 34.687-20.114 5.16-43.554-65.056-32.499-69.917 6.544-2.882 20.719-1.101 33.279 7.277 4.039 2.696 11.4 6.964 11.4 6.964Z" fill="#fff" stroke="#000" stroke-width="5" stroke-miterlimit="10"/><path d="M537.642 665.088c5.911 5.474 4.82 13.062 8.762 20.989 6.265 12.595-5.71 30.778-20.942 34.687-20.114 5.16-43.554-65.056-32.499-69.917 6.544-2.882 20.719-1.101 33.279 7.277 4.039 2.696 11.4 6.964 11.4 6.964Z" stroke="#000" stroke-width="5" stroke-miterlimit="10"/><path d="M514.57 715.165c-3.682-12.456-1.696-37.741 15.137-38.616 18.927-.987 8.482-9.166 6.064-12.023-2.416-2.854-12.889-6.371-11.44-7.859 1.444-1.488 27.09 1.326 35.136 18.419 8.046 17.093 3.933 27.681-3.585 36.117-7.515 8.439-22.426 14.035-33.476 11.268-11.05-2.772-7.836-7.306-7.836-7.306Z" fill="#000" stroke="#000" stroke-width="5" stroke-miterlimit="10"/><path d="M490.458 621.553c8.566 8.204 8.42 22.113 19.532 39.7 12.587 19.927 35.976 43.203 35.976 43.203 2.099 2.469 7.028 4.462 9.835 6.242 3.483 2.204 6.971 4.404 10.454 6.607 6.969 4.406 13.932 8.815 20.86 13.272 13.19 8.488 15.698 12.485 29.518 19.929 0 0 6.856 2.145 19.796 3.839 9.701 1.274 26.021 2.475 24.237 6.056-.632 1.26-36.869 6.673-52.515 0-16.929-7.218-19.844-10.106-36.358-18.165-12.153-5.927-27.809-11.785-38.377-20.183-37.628-29.9-56.024-63.318-63.404-79.784" fill="#fff"/><path d="M490.458 621.553c8.566 8.204 8.42 22.113 19.532 39.7 12.587 19.927 35.976 43.203 35.976 43.203 2.099 2.469 7.028 4.462 9.835 6.242 3.483 2.204 6.971 4.404 10.454 6.607 6.969 4.406 13.932 8.815 20.86 13.272 13.19 8.488 15.698 12.485 29.518 19.929 0 0 6.856 2.145 19.796 3.839 9.701 1.274 26.021 2.475 24.237 6.056-.632 1.26-36.869 6.673-52.515 0-16.929-7.218-19.844-10.106-36.358-18.165-12.153-5.927-27.809-11.785-38.377-20.183-37.628-29.9-56.024-63.318-63.404-79.784" stroke="#000" stroke-width="5" stroke-miterlimit="10"/><path d="M490.458 621.553c8.566 8.204 8.42 22.113 19.532 39.7 12.587 19.927 35.976 43.203 35.976 43.203 2.099 2.469 7.028 4.462 9.835 6.242 3.483 2.204 6.971 4.404 10.454 6.607 6.969 4.406 13.932 8.815 20.86 13.272 13.19 8.488 15.698 12.485 29.518 19.929 0 0 6.856 2.145 19.796 3.839 9.701 1.274 26.021 2.475 24.237 6.056-.632 1.26-36.869 6.673-52.515 0-16.929-7.218-19.844-10.106-36.358-18.165-12.153-5.927-27.809-11.785-38.377-20.183-37.628-29.9-56.024-63.318-63.404-79.784M184.91 212.947c3.113-1.533 21.836-4.471 21.836-4.471" stroke="#000" stroke-width="5" stroke-miterlimit="10"/></svg>

<svg width="800" height="900" viewBox="0 0 800 900" fill="none" xmlns="http://www.w3.org/2000/svg">
<path d="M359.709 467.741C349.61 445.54 291.034 393.064 270.836 354.715C250.637 316.367 202.161 201.322 200.141 189.212C198.121 177.101 206.201 177.101 194.082 164.991C181.962 152.881 153.684 132.697 149.645 132.697C145.605 132.697 143.585 136.734 149.645 144.808C155.704 152.881 173.883 171.047 175.903 177.101C177.923 183.156 188.022 227.56 192.062 239.669C196.101 251.78 216.3 350.679 228.419 374.899C240.538 399.119 293.054 479.85 293.054 479.85L359.709 467.741Z" fill="white" stroke="black" stroke-width="5" stroke-miterlimit="10"/>
<path d="M359.709 467.741C349.61 445.54 291.034 393.064 270.836 354.715C250.637 316.367 202.161 201.322 200.141 189.212C198.121 177.101 206.201 177.101 194.082 164.991C181.962 152.881 153.684 132.697 149.645 132.697C145.605 132.697 143.585 136.734 149.645 144.808C155.704 152.881 173.883 171.047 175.903 177.101C177.923 183.156 188.022 227.56 192.062 239.669C196.101 251.78 216.3 350.679 228.419 374.899C240.538 399.119 293.054 479.85 293.054 479.85L359.709 467.741Z" stroke="black" stroke-width="5" stroke-miterlimit="10"/>
<path d="M358.605 491.902L387.642 471.088C387.642 471.088 412.233 502.601 428.042 522.859C443.854 543.116 470.943 570.87 483.24 586.626C495.537 602.383 510.623 644.924 519.404 656.176C528.185 667.431 533.455 674.184 533.455 674.184L506.901 674.968C506.901 674.968 498.364 661.71 462.034 659.253C425.704 656.795 417.167 643.538 410.887 628.524C404.606 613.511 408.347 599.738 391.03 575.226C373.711 550.714 365.424 535.454 359.908 530.704C354.387 525.953 352.633 523.703 352.633 523.703L358.605 491.902Z" fill="white" stroke="black" stroke-width="5" stroke-miterlimit="10"/>
<path d="M358.605 491.902L387.642 471.088C387.642 471.088 412.233 502.601 428.042 522.859C443.854 543.116 470.943 570.87 483.24 586.626C495.537 602.383 510.623 644.924 519.404 656.176C528.185 667.431 533.455 674.184 533.455 674.184L506.901 674.968C506.901 674.968 498.364 661.71 462.034 659.253C425.704 656.795 417.167 643.538 410.887 628.524C404.606 613.511 408.347 599.738 391.03 575.226C373.711 550.714 365.424 535.454 359.908 530.704C354.387 525.953 352.633 523.703 352.633 523.703L358.605 491.902Z" stroke="black" stroke-width="5" stroke-miterlimit="10"/>
<path d="M365.685 498.364C373.394 487.231 385.702 473.493 387.987 471.778C387.987 471.778 369.241 443.451 341.531 437.468C313.822 431.485 293.97 457.579 282.555 480.415C272.464 500.602 251.727 539.232 243.734 552.363C235.743 565.498 222.297 589.683 209.195 608.609C193.781 630.877 179.166 662.87 172.661 678.841C166.384 694.258 156.954 710.92 155.251 715.101C152.114 722.807 146.975 730.229 158.687 733.938C170.242 737.594 204.354 740.436 210.679 741.336C218.677 742.474 227.245 739.616 221.816 734.768C216.387 729.917 198.39 727.357 190.678 724.219C182.963 721.082 177.249 718.23 182.387 710.807C187.526 703.384 225.21 653.703 244.626 632.001C264.042 610.301 301.65 560.544 320.858 540.916C347.128 514.074 347.986 522.351 351.986 522.92C351.984 522.919 360.545 505.788 365.685 498.364Z" fill="white" stroke="black" stroke-width="5" stroke-miterlimit="10"/>
<path d="M365.685 498.364C373.394 487.231 385.702 473.493 387.987 471.778C387.987 471.778 369.241 443.451 341.531 437.468C313.822 431.485 293.97 457.579 282.555 480.415C272.464 500.602 251.727 539.232 243.734 552.363C235.743 565.498 222.297 589.683 209.195 608.609C193.781 630.877 179.166 662.87 172.661 678.841C166.384 694.258 156.954 710.92 155.251 715.101C152.114 722.807 146.975 730.229 158.687 733.938C170.242 737.594 204.354 740.436 210.679 741.336C218.677 742.474 227.245 739.616 221.816 734.768C216.387 729.917 198.39 727.357 190.678 724.219C182.963 721.082 177.249 718.23 182.387 710.807C187.526 703.384 225.21 653.703 244.626 632.001C264.042 610.301 301.65 560.544 320.858 540.916C347.128 514.074 347.986 522.351 351.986 522.92C351.984 522.919 360.545 505.788 365.685 498.364Z" stroke="black" stroke-width="5" stroke-miterlimit="10"/>
<path d="M171.887 680.707C175.52 687.401 195.751 692.869 195.751 692.869" stroke="black" stroke-width="5" stroke-miterlimit="10"/>
<path d="M501.149 619.843C492.537 610.146 475.49 599.905 461.727 612.439C447.962 624.974 452.309 647.57 465.572 659.535" stroke="black" stroke-width="5" stroke-miterlimit="10"/>
<path d="M537.642 665.088C543.553 670.562 542.462 678.15 546.404 686.077C552.669 698.672 540.694 716.855 525.462 720.764C505.348 725.924 481.908 655.708 492.963 650.847C499.507 647.965 513.682 649.746 526.242 658.124C530.281 660.82 537.642 665.088 537.642 665.088Z" fill="white" stroke="black" stroke-width="5" stroke-miterlimit="10"/>
<path d="M537.642 665.088C543.553 670.562 542.462 678.15 546.404 686.077C552.669 698.672 540.694 716.855 525.462 720.764C505.348 725.924 481.908 655.708 492.963 650.847C499.507 647.965 513.682 649.746 526.242 658.124C530.281 660.82 537.642 665.088 537.642 665.088Z" stroke="black" stroke-width="5" stroke-miterlimit="10"/>
<path d="M514.57 715.165C510.888 702.709 512.874 677.424 529.707 676.549C548.634 675.562 538.189 667.383 535.771 664.526C533.355 661.672 522.882 658.155 524.331 656.667C525.775 655.179 551.421 657.993 559.467 675.086C567.513 692.179 563.4 702.767 555.882 711.203C548.367 719.642 533.456 725.238 522.406 722.471C511.356 719.699 514.57 715.165 514.57 715.165Z" fill="black" stroke="black" stroke-width="5" stroke-miterlimit="10"/>
<path d="M490.458 621.553C499.024 629.757 498.878 643.666 509.99 661.253C522.577 681.18 545.966 704.456 545.966 704.456C548.065 706.925 552.994 708.918 555.801 710.698C559.284 712.902 562.772 715.102 566.255 717.305C573.224 721.711 580.187 726.12 587.115 730.577C600.305 739.065 602.813 743.062 616.633 750.506C616.633 750.506 623.489 752.651 636.429 754.345C646.13 755.619 662.45 756.82 660.666 760.401C660.034 761.661 623.797 767.074 608.151 760.401C591.222 753.183 588.307 750.295 571.793 742.236C559.64 736.309 543.984 730.451 533.416 722.053C495.788 692.153 477.392 658.735 470.012 642.269" fill="white"/>
<path d="M490.458 621.553C499.024 629.757 498.878 643.666 509.99 661.253C522.577 681.18 545.966 704.456 545.966 704.456C548.065 706.925 552.994 708.918 555.801 710.698C559.284 712.902 562.772 715.102 566.255 717.305C573.224 721.711 580.187 726.12 587.115 730.577C600.305 739.065 602.813 743.062 616.633 750.506C616.633 750.506 623.489 752.651 636.429 754.345C646.13 755.619 662.45 756.82 660.666 760.401C660.034 761.661 623.797 767.074 608.151 760.401C591.222 753.183 588.307 750.295 571.793 742.236C559.64 736.309 543.984 730.451 533.416 722.053C495.788 692.153 477.392 658.735 470.012 642.269" stroke="black" stroke-width="5" stroke-miterlimit="10"/>
<path d="M490.458 621.553C499.024 629.757 498.878 643.666 509.99 661.253C522.577 681.18 545.966 704.456 545.966 704.456C548.065 706.925 552.994 708.918 555.801 710.698C559.284 712.902 562.772 715.102 566.255 717.305C573.224 721.711 580.187 726.12 587.115 730.577C600.305 739.065 602.813 743.062 616.633 750.506C616.633 750.506 623.489 752.651 636.429 754.345C646.13 755.619 662.45 756.82 660.666 760.401C660.034 761.661 623.797 767.074 608.151 760.401C591.222 753.183 588.307 750.295 571.793 742.236C559.64 736.309 543.984 730.451 533.416 722.053C495.788 692.153 477.392 658.735 470.012 642.269" stroke="black" stroke-width="5" stroke-miterlimit="10"/>
<path d="M184.91 212.947C188.023 211.414 206.746 208.476 206.746 208.476" stroke="black" stroke-width="5" stroke-miterlimit="10"/>
</svg>
